X: 0764
M: 4/4
L: 1/8
K: D
f |\
dATA2 F<DTD2 | f>ae>g dBTe2 |\
d<ATA3 F<D D>g | f>ae>g d/d/d d :|
f |\
a>baf Te>def | d>AB>F {c}dFE2 |\
a>baf Te>def | d>AA>B d>ed>f |

